X: 19518
T: Jail Of Cluain Meala, The
R: waltz
M: 3/4
K: Gmajor
dc|B2>A2G2|A2<d2e2|B2<d2F2|A2G2G2|
G2B2d2|e2<f2g2|f2d2e2|f2<d2d2|
g2>a2f2|g2d2B2/d2/|c2>B2c2|d2<B2G2/A2/|
B2>A2B2|c2>d2c2|B2F2A2|A2<G2||

